src/apps/scalable/lite-xl.svg

<?xml version="1.0" encoding="UTF-8"?>
<svg width="64" height="64" style="isolation:isolate" version="1.1" viewBox="0 0 64 64" xmlns="http://www.w3.org/2000/svg">
 <defs>
  <clipPath id="clipPath7">
   <rect width="64" height="64" stroke-width="1.3333"/>
  </clipPath>
  <clipPath id="clipPath8">
   <rect width="64" height="64" stroke-width="1.3333"/>
  </clipPath>
  <clipPath id="clipPath9">
   <rect width="64" height="64" stroke-width="1.3333"/>
  </clipPath>
  <clipPath id="clipPath10">
   <rect width="64" height="64" stroke-width="1.3333"/>
  </clipPath>
  <clipPath id="clipPath12">
   <rect width="64" height="64" stroke-width="1.3333"/>
  </clipPath>
  <linearGradient id="linearGradient1040" x1="7.9373" x2="7.9373" y1="15.081" y2="1.852" gradientTransform="matrix(4.0494 0 0 4.0494 -2.2856 -2.2519)" gradientUnits="userSpaceOnUse">
   <stop stop-color="#363636" offset="0"/>
   <stop stop-color="#6c6c6c" offset="1"/>
  </linearGradient>
  <filter id="filter7" x="-.027" y="-.027" width="1.054" height="1.054" color-interpolation-filters="sRGB">
   <feGaussianBlur stdDeviation="0.675"/>
  </filter>
 </defs>
 <rect x="2" y="3" width="60" height="60" rx="30" ry="30" filter="url(#filter7)" opacity=".15"/>
 <rect x="2" y="2" width="60" height="60" rx="30" ry="30" fill="url(#linearGradient1040)" stroke-width="4.0494"/>
 <g stroke-width="1.3333">
  <rect width="64" height="64" clip-path="url(#clipPath12)" fill-opacity="0"/>
  <path d="m25.333 36v-16c0-1.472-1.1947-2.6667-2.6667-2.6667h-5.3333v22.667c0 3.68 2.9867 6.6667 6.6667 6.6667h22.667v-5.3333c0-1.472-1.1947-2.6667-2.6667-2.6667h-16c-1.472 0-2.6667-1.1947-2.6667-2.6667z" clip-path="url(#clipPath10)" fill="#fff"/>
  <path d="m32 29.333v-8l6.6667 4 4 6.6667h-8c-1.472 0-2.6667-1.1947-2.6667-2.6667z" clip-path="url(#clipPath9)" fill="#93ddfa"/>
  <path d="m46.667 17.333h-18.667l18.667 18.667z" clip-path="url(#clipPath8)" fill="#ffa94d"/>
  <path d="m42.667 21.333h-10.667l10.667 10.667z" clip-path="url(#clipPath7)" fill="#f7c95c"/>
 </g>
</svg>

<svg xmlns="http://www.w3.org/2000/svg" width="64" height="64" style="isolation:isolate"><defs><clipPath id="g"><path stroke-width="1.333" d="M0 0h64v64H0z"/></clipPath><clipPath id="f"><path stroke-width="1.333" d="M0 0h64v64H0z"/></clipPath><clipPath id="e"><path stroke-width="1.333" d="M0 0h64v64H0z"/></clipPath><clipPath id="d"><path stroke-width="1.333" d="M0 0h64v64H0z"/></clipPath><clipPath id="c"><path stroke-width="1.333" d="M0 0h64v64H0z"/></clipPath><linearGradient id="b" x1="7.937" x2="7.937" y1="15.081" y2="1.852" gradientTransform="translate(-2.286 -2.252) scale(4.0494)" gradientUnits="userSpaceOnUse"><stop offset="0" stop-color="#363636"/><stop offset="1" stop-color="#6c6c6c"/></linearGradient><filter id="a" width="1.054" height="1.054" x="-.027" y="-.027" color-interpolation-filters="sRGB"><feGaussianBlur stdDeviation=".675"/></filter></defs><rect width="60" height="60" x="2" y="3" filter="url(#a)" opacity=".15" rx="30" ry="30"/><rect width="60" height="60" x="2" y="2" fill="url(#b)" rx="30" ry="30"/><g stroke-width="1.333"><path fill="none" d="M0 0h64v64H0z" clip-path="url(#c)"/><path fill="#fff" d="M25.333 36V20a2.668 2.668 0 0 0-2.667-2.667h-5.333V40A6.67 6.67 0 0 0 24 46.667h22.667v-5.333A2.668 2.668 0 0 0 44 38.667H28A2.668 2.668 0 0 1 25.333 36z" clip-path="url(#d)"/><path fill="#93ddfa" d="M32 29.333v-8l6.667 4 4 6.667h-8A2.668 2.668 0 0 1 32 29.333z" clip-path="url(#e)"/><path fill="#ffa94d" d="M46.667 17.333H28L46.667 36z" clip-path="url(#f)"/><path fill="#f7c95c" d="M42.667 21.333H32L42.667 32z" clip-path="url(#g)"/></g></svg>
